icons/mini/face-smile.svg

<svg width="20" height="20" viewBox="0 0 20 20" fill="none" xmlns="http://www.w3.org/2000/svg">
<path fill-rule="evenodd" clip-rule="evenodd" d="M10 18C14.4183 18 18 14.4183 18 10C18 5.58172 14.4183 2 10 2C5.58172 2 2 5.58172 2 10C2 14.4183 5.58172 18 10 18ZM13.5355 13.5355C13.8284 13.2426 13.8284 12.7678 13.5355 12.4749C13.2426 12.182 12.7678 12.182 12.4749 12.4749C11.108 13.8417 8.89196 13.8417 7.52513 12.4749C7.23223 12.182 6.75736 12.182 6.46447 12.4749C6.17157 12.7678 6.17157 13.2426 6.46447 13.5355C8.41709 15.4881 11.5829 15.4881 13.5355 13.5355ZM9 8.5C9 9.32843 8.55228 10 8 10C7.44772 10 7 9.32843 7 8.5C7 7.67157 7.44772 7 8 7C8.55228 7 9 7.67157 9 8.5ZM12 10C12.5523 10 13 9.32843 13 8.5C13 7.67157 12.5523 7 12 7C11.4477 7 11 7.67157 11 8.5C11 9.32843 11.4477 10 12 10Z" fill="#0F172A"/>
</svg>

<svg xmlns="http://www.w3.org/2000/svg" viewBox="0 0 20 20" fill="currentColor" aria-hidden="true" data-slot="icon">
  <path fill-rule="evenodd" d="M10 18a8 8 0 1 0 0-16 8 8 0 0 0 0 16Zm3.536-4.464a.75.75 0 1 0-1.061-1.061 3.5 3.5 0 0 1-4.95 0 .75.75 0 0 0-1.06 1.06 5 5 0 0 0 7.07 0ZM9 8.5c0 .828-.448 1.5-1 1.5s-1-.672-1-1.5S7.448 7 8 7s1 .672 1 1.5Zm3 1.5c.552 0 1-.672 1-1.5S12.552 7 12 7s-1 .672-1 1.5.448 1.5 1 1.5Z" clip-rule="evenodd"/>
</svg>
